icon/cg/corner-double-right-up.svg

<svg viewBox="0 0 24 24" fill="none" xmlns="http://www.w3.org/2000/svg" height="1em" width="1em">
  <path d="M16.2163 9.25045L17.6305 7.83624L13.3879 3.59363L9.14526 7.83627L10.5595 9.25048L13.3879 6.42205L16.2163 9.25045Z" fill="currentColor"/>
  <path d="M10.5595 13.4932L9.14526 12.0789L13.3879 7.83628L17.6305 12.0789L16.2163 13.4931L14.3695 11.6463V16.4063C14.3695 18.6155 12.5786 20.4063 10.3695 20.4063H6.36951V18.4063H10.3695C11.4741 18.4063 12.3695 17.5109 12.3695 16.4063V11.6831L10.5595 13.4932Z" fill="currentColor"/>
</svg>

<svg width="24" height="24" fill="none" xmlns="http://www.w3.org/2000/svg"><path d="m16.216 9.25 1.415-1.414-4.243-4.242-4.243 4.242L10.56 9.25l2.828-2.828 2.828 2.828Z" fill="currentColor"/><path d="M10.56 13.493 9.145 12.08l4.243-4.243 4.243 4.243-1.415 1.414-1.847-1.847v4.76a4 4 0 0 1-4 4h-4v-2h4a2 2 0 0 0 2-2v-4.723l-1.81 1.81Z" fill="currentColor"/></svg>
